icons/svg/seamark/topmark_vertical_whiteblack_board_border.svg

<?xml version="1.0" encoding="UTF-8" standalone="no"?>
<svg
   xmlns:dc="http://purl.org/dc/elements/1.1/"
   xmlns:cc="http://creativecommons.org/ns#"
   xmlns:rdf="http://www.w3.org/1999/02/22-rdf-syntax-ns#"
   xmlns:svg="http://www.w3.org/2000/svg"
   xmlns="http://www.w3.org/2000/svg"
   xmlns:sodipodi="http://sodipodi.sourceforge.net/DTD/sodipodi-0.dtd"
   xmlns:inkscape="http://www.inkscape.org/namespaces/inkscape"
   width="580"
   height="580"
   id="svg2"
   version="1.1"
   inkscape:version="0.48.4 r9939"
   sodipodi:docname="topmark_vertical_whiteblack_board_border.svg">
  <defs
     id="defs13">
    <inkscape:path-effect
       effect="gears"
       id="path-effect3774"
       is_visible="true"
       teeth="6"
       phi="-1.2" />
    <inkscape:path-effect
       effect="bend_path"
       id="path-effect3772"
       is_visible="false"
       bendpath="m 95.790098,316.51174 c 144.429032,-206.42506 223.313032,-11.7428 339.548092,0"
       prop_scale="1.19"
       scale_y_rel="false"
       vertical="false"
       bendpath-nodetypes="cc" />
  </defs>
  <sodipodi:namedview
     pagecolor="#ffffff"
     bordercolor="#666666"
     borderopacity="1"
     objecttolerance="10"
     gridtolerance="10"
     guidetolerance="10"
     inkscape:pageopacity="0"
     inkscape:pageshadow="2"
     inkscape:window-width="1920"
     inkscape:window-height="1004"
     id="namedview11"
     showgrid="false"
     inkscape:zoom="0.40689654"
     inkscape:cx="111.13553"
     inkscape:cy="399.56751"
     inkscape:window-x="1680"
     inkscape:window-y="0"
     inkscape:window-maximized="1"
     inkscape:current-layer="svg2"
     inkscape:snap-midpoints="false"
     inkscape:snap-bbox="true"
     inkscape:object-paths="true"
     inkscape:snap-object-midpoints="false" />
  <metadata
     id="metadata2975">image/svg+xmlen<rdf:RDF>
  <cc:Work
     rdf:about="">
    <dc:format>image/svg+xml</dc:format>
    <dc:type
       rdf:resource="http://purl.org/dc/dcmitype/StillImage" />
    <dc:title></dc:title>
  </cc:Work>
</rdf:RDF>
</metadata>
  <path
     sodipodi:type="inkscape:offset"
     inkscape:radius="21.72728"
     inkscape:original="M 225.84375 40.15625 L 225.8125 74.125 L 225.78125 116.1875 L 225.8125 116.1875 L 225.78125 150.15625 L 270.5 150.21875 L 270.5 514.75 L 295.5 514.75 L 295.5 150.21875 L 340.40625 150.28125 L 340.40625 116.3125 L 340.4375 116.3125 L 340.46875 74.25 L 340.4375 74.25 L 340.4375 40.3125 L 225.84375 40.15625 z "
     style="font-size:medium;font-style:normal;font-variant:normal;font-weight:normal;font-stretch:normal;text-indent:0;text-align:start;text-decoration:none;line-height:normal;letter-spacing:normal;word-spacing:normal;text-transform:none;direction:ltr;block-progression:tb;writing-mode:lr-tb;text-anchor:start;baseline-shift:baseline;opacity:0.55199998;color:#000000;fill:#8d8d8d;fill-opacity:1;fill-rule:nonzero;stroke:#a35151;stroke-width:0;stroke-linecap:round;stroke-linejoin:miter;stroke-miterlimit:4;stroke-opacity:1;stroke-dasharray:none;stroke-dashoffset:0;marker:none;visibility:visible;display:inline;overflow:visible;enable-background:accumulate;font-family:Sans;-inkscape-font-specification:Sans"
     id="path3206"
     d="m 225.875,18.4375 a 21.729452,21.729452 0 0 0 -21.75,21.6875 l -0.0312,33.96875 -0.0312,42.0625 a 21.729452,21.729452 0 0 0 0.0312,0.71875 l -0.0312,33.25 a 21.729452,21.729452 0 0 0 21.6875,21.75 l 23.03125,0.0312 0,342.84375 A 21.729452,21.729452 0 0 0 270.5,536.46875 l 25,0 A 21.729452,21.729452 0 0 0 317.21875,514.75 l 0,-342.78125 L 340.375,172 a 21.729452,21.729452 0 0 0 21.75,-21.71875 l 0,-32.4375 a 21.729452,21.729452 0 0 0 0.0312,-1.5 l 0.0312,-42.0625 a 21.729452,21.729452 0 0 0 -0.0312,-0.71875 l 0,-33.25 A 21.729452,21.729452 0 0 0 340.46875,18.59375 L 225.875,18.4375 z" />
  <path
     style="color:#000000;fill:none;stroke:#000000;stroke-width:25;stroke-linecap:butt;stroke-linejoin:miter;stroke-miterlimit:4;stroke-opacity:1;stroke-dasharray:none;stroke-dashoffset:0;marker:none;visibility:visible;display:inline;overflow:visible;enable-background:accumulate"
     d="m 283.08793,514.5625 0,-445.73931"
     id="path3065"
     inkscape:connector-curvature="0" />
  <path
     style="color:#000000;fill:#000000;fill-opacity:1;fill-rule:nonzero;stroke:none;stroke-width:1;marker:none;visibility:visible;display:inline;overflow:visible;enable-background:accumulate"
     d="m 225.94448,39.978671 114.60796,0.133641 -0.0537,109.978998 -114.60796,-0.13366 z"
     id="rect4026"
     inkscape:connector-curvature="0"
     sodipodi:nodetypes="ccccc" />
  <rect
     style="color:#000000;fill:#fefefe;fill-opacity:1;fill-rule:nonzero;stroke:#a35151;stroke-width:0;stroke-linecap:round;stroke-linejoin:miter;stroke-miterlimit:4;stroke-opacity:1;stroke-dasharray:none;stroke-dashoffset:0;marker:none;visibility:visible;display:inline;overflow:visible;enable-background:accumulate"
     id="rect3757"
     width="54.341301"
     height="54.341301"
     x="255.44629"
     y="67.31134"
     transform="matrix(0.99999749,-0.0022386,0.0022386,0.99999749,0,0)" />
</svg>

<svg width="580" height="580" viewBox="0 0 580 580" fill="none" xmlns="http://www.w3.org/2000/svg">
<path opacity="0.552" d="M225.875 18.4375C220.116 18.4321 214.59 20.7132 210.511 24.7798C206.433 28.8464 204.136 34.3657 204.125 40.125L204.094 74.0938L204.063 116.156C204.069 116.396 204.079 116.636 204.094 116.875L204.063 150.125C204.057 155.884 206.338 161.41 210.405 165.489C214.471 169.567 219.991 171.864 225.75 171.875L248.781 171.906V514.75C248.784 520.509 251.073 526.032 255.146 530.104C259.218 534.177 264.741 536.466 270.5 536.469H295.5C301.259 536.466 306.782 534.177 310.854 530.104C314.927 526.032 317.216 520.509 317.219 514.75V171.969L340.375 172C343.229 172.003 346.056 171.443 348.694 170.353C351.332 169.263 353.73 167.664 355.75 165.647C357.769 163.63 359.372 161.235 360.466 158.598C361.56 155.962 362.124 153.136 362.125 150.281V117.844C362.153 117.344 362.163 116.844 362.156 116.344L362.187 74.2813C362.181 74.0415 362.171 73.8019 362.156 73.5625V40.3125C362.153 34.5586 359.869 29.0408 355.803 24.9692C351.737 20.8977 346.223 18.6049 340.469 18.5938L225.875 18.4375Z" fill="#8D8D8D"/>
<path d="M283.088 514.562V68.8223" stroke="black" stroke-width="25"/>
<path d="M225.944 39.9785L340.552 40.1122L340.499 150.091L225.891 149.958L225.944 39.9785Z" fill="black"/>
<path d="M309.938 66.6186L255.596 66.7402L255.718 121.081L310.059 120.96L309.938 66.6186Z" fill="#FEFEFE"/>
</svg>
